lib/assets/buttons/pref_network_services.svg

<svg height="24" viewBox="0 0 24 24" width="24" xmlns="http://www.w3.org/2000/svg">
    <path d="m15 20a1 1 0 0 0 -1-1h-1v-2h4a2 2 0 0 0 2-2v-10a2 2 0 0 0 -2-2h-10a2 2 0 0 0 -2 2v10a2 2 0 0 0 2 2h4v2h-1a1 1 0 0 0 -1 1h-7v2h7a1 1 0 0 0 1 1h4a1 1 0 0 0 1-1h7v-2zm-5-6v-8l5 4z" />
</svg>

<?xml version="1.0" encoding="UTF-8" standalone="no"?>
<svg
   xmlns:dc="http://purl.org/dc/elements/1.1/"
   xmlns:cc="http://creativecommons.org/ns#"
   xmlns:rdf="http://www.w3.org/1999/02/22-rdf-syntax-ns#"
   xmlns:svg="http://www.w3.org/2000/svg"
   xmlns="http://www.w3.org/2000/svg"
   version="1.1"
   width="24"
   height="24"
   viewBox="0 0 24 24"
   id="svg4">
  <metadata
     id="metadata10">
    <rdf:RDF>
      <cc:Work
         rdf:about="">
        <dc:format>image/svg+xml</dc:format>
        <dc:type
           rdf:resource="http://purl.org/dc/dcmitype/StillImage" />
      </cc:Work>
    </rdf:RDF>
  </metadata>
  <defs
     id="defs8" />
  <path
     d="M15,20A1,1 0 0,0 14,19H13V17H17A2,2 0 0,0 19,15V5A2,2 0 0,0 17,3H7A2,2 0 0,0 5,5V15A2,2 0 0,0 7,17H11V19H10A1,1 0 0,0 9,20H2V22H9A1,1 0 0,0 10,23H14A1,1 0 0,0 15,22H22V20H15M10,14V6L15,10L10,14Z"
     id="path2" />
</svg>
